X:1
T:Arthur Bignold Of Lochrosque  "CYMRU"
M:C|
L:1/8
Q:80
C:J.MacColl
S:March
K:HP
|: a3/4f/4|
{gef}e3/2A/2{gcd}c3/2B/2|
{g}A3/4{d}c/4a3/4f/4{gef}e/2A/2{gcd}c|  !
{Gdc}d3/2G/2{gBd}B3/2A/2|
{g}G3/4{d}B/4g3/4e/4{Gdc}d{g}c3/4d/2| |
{gef}e3/2A/2{gcd}c3/2B/2|  !
{g}A3/4{d}c/4a3/4f/4{gef}e/2A/2{gcd}c|
{GdG}e3/2c/2{g}B/4d3/4{g}G3/4{d}B/4|
{g}A2{GAG}A:| |:  !
{g}c3/4d/4|
{gef}e{ag}a{cd}c{ag}a|
A3/4{d}c/4a3/4f/4{gef}e/2A/2{gcd}c|  !
{Gdc}d{gf}g{Bd}B{gf}g|
{g}G3/4{d}B/4g3/4e/4{Gdc}d{g}c3/4d/2| |
{gef}e{ag}a{cd}c{ag}a|  !
{g}A3/4{d}c/4a3/4f/4{gef}e/2A/2{gcd}c|
{GdG}e3/2c/2{g}B/4d3/4{g}G3/4{d}B/4|
{g}A2{GAG}A:| |:  !
{gef}e|
{g}A{GdGe}A3/4{d}c/4{gef}e/2A/2{gcd}c|
{g}A3/4{d}c/4a3/4f/4{gef}e{gde}d3/4B/4|  !
{g}G3/4{d}G/4{e}G3/4B/4d/2{d}G/2{gcd}c|
{g}G3/4{d}B/4g3/4e/4{Gdc}d{gcd}c3/4B/4| |
{g}A{GdGe}A3/4{d}c/4{gef}e/2A/2{gcd}c|  !
{g}A3/4{d}c/4a3/4f/4{gef}e/2A/2{gcd}c|
{GdG}e3/2c/2{g}B/4d3/4{g}G3/4{d}B/4|
{g}A2{GAG}A:| |:  !
{g}c3/4d/4|
{g}e/4a3/4{cd}c/2a/2A{GdGe}A3/4{d}c/4|
{gef}e3/4d/4{g}c3/4d/4{gef}e/2{gcd}c|  !
{g}d/4g3/4{Bd}B/2g/2G3/4{d}G/4{e}G3/4{d}B/4|
{gde}d3/4c/4{g}B/4e3/4{gde}d/2G/2{gBd}B|1 |
{g}e/4a3/4{cd}c/2a/2A{GdGe}A3/4{d}c/4|  !
{gef}e3/4d/4{g}c3/4d/4{gef}e/2A/2{gcd}c|
{GdG}e3/2c/2{g}B/4d3/4{g}G/2{d}B/4|
{g}A2{GAG}A:|2 |  !
{g}A3/4B/4{GdG}c3/4d/4{g}c/4e3/4{g}A3/4{d}c/4|
{g}d/4f3/4{g}c/4e3/4{gef}e/2A/2{gcd}c|
{GdG}e3/2c/2{g}B/4d3/4{g}G/2{d}B/4|  !
{g}A2{GAG}A|]

